X:564
T: "Treue"
N: Z1244
O: Europa, Mitteleuropa, Tirol
R: Liebes - Lied
M: 3/4
L: 1/8
K: G
GA | B2B2B2 | c2cBce | dBg2z2 | z4
GA | B2B2B2 | c2cBce | d4z2 | z4
GA | B2B2B2 | dccBce | dBg2z2 | z4
GA | B2B2B2 | dcBAGF | G4z2 | z4
d2 | d3dd2 | d2d2c2 | B2A2z2 | z4
d2 | d3dd2 | d2dedc | B4z2 | z4
GA | B2B2B2 | dccBce | dBg2z2 | z4
GA | B2B2B2 | dcBAGF | G4

@@@ Tune index: 10322
